icons/folder-test-close-light.svg

<svg width="16" height="16" viewBox="0 0 16 16" fill="none" xmlns="http://www.w3.org/2000/svg">
<path d="M15 2.5V12.36L13.5 9.73V9H14.5V6H7.50001V9H8.50001V9.73L6.63001 13H2.51001C2.3774 13 2.25023 12.9473 2.15646 12.8536C2.06269 12.7598 2.01001 12.6326 2.01001 12.5V4.5C2.01001 4.36739 2.06269 4.24021 2.15646 4.14645C2.25023 4.05268 2.3774 4 2.51001 4H6.01001L7.01001 2H14.5C14.6326 2 14.7598 2.05268 14.8536 2.14645C14.9473 2.24021 15 2.36739 15 2.5ZM14.01 4V3H8.01001L7.51001 4H14.01Z" fill="#4F575E"/>
<path d="M14.21 13L14.5 13.5L13.5 15H8.5L7.5 13.5L7.79 13H14.21Z" fill="#3B5BDB"/>
<path d="M12.5 10L14.21 13H7.79004L9.50004 10V8H8.50004V7H13.5V8H12.5V10ZM12.47 12L11.67 10.55L11.5 10.3V8H10.5V10.3L10.33 10.55L9.53004 12H12.47Z" fill="#3B5BDB"/>
</svg>

<svg xmlns="http://www.w3.org/2000/svg" width="16" height="16" viewBox="0 0 16 16"><defs><style>.a{fill:#4f575e;}.b{fill:#3b5bdb;}</style></defs><title>folder-test-close-light</title><path class="a" d="M15,2.5v9.86L13.5,9.73V9h1V6h-7V9h1v.73L6.63,13H2.51a.5.5,0,0,1-.5-.5v-8a.5.5,0,0,1,.5-.5H6L7,2H14.5A.5.5,0,0,1,15,2.5ZM14,4V3H8l-.5,1Z"/><polygon class="b" points="14.21 13 14.5 13.5 13.5 15 8.5 15 7.5 13.5 7.79 13 14.21 13"/><path class="b" d="M12.5,10l1.71,3H7.79L9.5,10V8h-1V7h5V8h-1Zm0,2-.8-1.45-.17-.25V8h-1v2.3l-.17.25L9.53,12Z"/></svg>
